X:1
T:Iggie and Squiggie
M:4/4
L:1/8
C:JerryHolland
R:Reel
F:http://www.betsyhooper.com/sitebuildercontent/sitebuilderfiles/Scot2 2008-06-11 22:01:31 UT
K:D
   z2 \
| "D"fgfe d2fd | "G"B2dB "D"BAFA | "D"fgfe     d2fd | "G"ABde "A7"fe[e2c2] |
| "D"fgfe d2fd | "G"B2dB "D"BAFA | "D"fgfe "Bm"dedc | "G"BA"A7"Bc  "D"d2  :|
|: fg \
| "D"ad~d2 adbd | "D"ad~d2 "A7"agfg | "D"ad~d2    adbd | "G"fede "A7"fe[ec]e |
| "D"ad~d2 adbd | "D"ad~d2  "G"g2ag | "D"fgfe  "G"dedc | "G"BA"A7"Bc  "D"d2  :|
